assets/illustrations/adobe-lightroom-classic-cc-logo.svg

<svg width="50" height="51" viewBox="0 0 50 51" fill="none" xmlns="http://www.w3.org/2000/svg">
<g clip-path="url(#clip0_217_2770)">
<path d="M42.188 0.200195H7.812C3.49755 0.200195 0 3.69775 0 8.0122V42.3882C0 46.7026 3.49755 50.2002 7.812 50.2002H42.188C46.5024 50.2002 50 46.7026 50 42.3882V8.0122C50 3.69775 46.5024 0.200195 42.188 0.200195Z" fill="#001E36"/>
<path d="M18.4 35.5492V35.5542C18.372 35.6812 18.302 35.7962 18.202 35.8792C18.098 35.9592 17.97 36.0002 17.839 35.9962H6.52803C6.37703 36.0022 6.23003 35.9432 6.12603 35.8332C6.03203 35.7192 5.98303 35.5752 5.99003 35.4272V15.6452C5.97103 15.3832 6.16903 15.1562 6.43103 15.1372C6.45303 15.1352 6.47603 15.1352 6.49803 15.1372H9.79503C9.92303 15.1332 10.047 15.1862 10.132 15.2822C10.207 15.3762 10.246 15.4942 10.241 15.6142V32.5792H18.423C18.569 32.5702 18.712 32.6252 18.814 32.7302C18.908 32.8462 18.938 33.0012 18.895 33.1442L18.4 35.5482V35.5492Z" fill="#31A8FF"/>
<path d="M19.9519 20.6144C20.0419 20.5164 20.1709 20.4634 20.3039 20.4694H23.1999C23.3289 20.4674 23.4559 20.5064 23.5619 20.5814C23.6639 20.6584 23.7399 20.7634 23.7829 20.8834C23.9269 21.2804 24.0189 21.6934 24.0559 22.1134C25.2079 20.8494 26.8519 20.1484 28.5609 20.1924C28.8079 20.1754 29.0219 20.3624 29.0389 20.6094C29.0399 20.6294 29.0399 20.6494 29.0389 20.6694V23.7814C29.0599 24.0274 28.8779 24.2434 28.6319 24.2644C28.5909 24.2684 28.5489 24.2654 28.5079 24.2574C26.7799 24.1594 25.4549 24.6094 24.4939 25.5684C24.3529 25.7174 24.2809 25.9184 24.2929 26.1234V35.5214C24.2979 35.6574 24.2429 35.7884 24.1419 35.8794C24.0409 35.9604 23.9139 36.0024 23.7849 35.9964H20.5499C20.4109 36.0024 20.2749 35.9574 20.1679 35.8684C20.0629 35.7704 20.0059 35.6314 20.0119 35.4884V25.0744C20.0119 23.4174 19.9609 22.0514 19.8599 20.9754C19.8369 20.8474 19.8699 20.7154 19.9509 20.6134L19.9519 20.6144Z" fill="#31A8FF"/>
<path d="M44.438 35.634L44.422 35.641C43.37 36.071 41.922 36.277 40.102 36.277C37.128 36.277 34.649 35.385 32.684 33.59C30.702 31.778 29.733 29.057 29.733 25.478C29.733 22.299 30.697 19.722 32.644 17.774C34.611 15.807 37.198 14.832 40.378 14.832C42.25 14.832 43.68 15.046 44.636 15.499C44.751 15.541 44.846 15.623 44.904 15.731C44.959 15.839 44.986 15.959 44.982 16.079V18.76C44.983 18.833 44.975 18.906 44.958 18.978C44.937 19.066 44.887 19.145 44.816 19.201C44.731 19.264 44.621 19.285 44.519 19.257C44.452 19.239 44.389 19.208 44.333 19.166C43.145 18.573 41.826 18.29 40.499 18.346C38.503 18.346 36.954 18.962 35.821 20.174C34.688 21.364 34.106 23.078 34.106 25.356C34.079 26.583 34.282 27.804 34.703 28.956C35.03 29.84 35.586 30.621 36.315 31.218C36.941 31.708 37.644 32.09 38.395 32.348C39.135 32.587 39.908 32.707 40.686 32.705C41.891 32.718 43.088 32.525 44.229 32.137C44.36 32.073 44.514 32.082 44.636 32.161C44.748 32.252 44.809 32.391 44.799 32.535V35C44.81 35.258 44.676 35.5 44.452 35.627L44.437 35.636L44.438 35.634Z" fill="#31A8FF"/>
</g>
<defs>
<clipPath id="clip0_217_2770">
<rect width="50" height="50" fill="white" transform="translate(0 0.200195)"/>
</clipPath>
</defs>
</svg>

<svg width="50" height="51" fill="none" xmlns="http://www.w3.org/2000/svg"><g clip-path="url(#a)"><path d="M42.188.2H7.812A7.812 7.812 0 0 0 0 8.012v34.376A7.812 7.812 0 0 0 7.812 50.2h34.376A7.812 7.812 0 0 0 50 42.388V8.012A7.812 7.812 0 0 0 42.188.2Z" fill="#001E36"/><path d="M18.4 35.55v.004a.588.588 0 0 1-.198.325.566.566 0 0 1-.363.117H6.528a.525.525 0 0 1-.402-.163.593.593 0 0 1-.136-.406V15.645a.476.476 0 0 1 .508-.508h3.297a.433.433 0 0 1 .337.145.5.5 0 0 1 .109.332V32.58h8.182a.502.502 0 0 1 .391.151.451.451 0 0 1 .081.414l-.495 2.404v.001Zm1.552-14.936a.45.45 0 0 1 .352-.145H23.2a.61.61 0 0 1 .362.112.653.653 0 0 1 .22.302c.145.397.237.81.274 1.23a5.89 5.89 0 0 1 4.505-1.92.449.449 0 0 1 .478.476v3.112a.446.446 0 0 1-.531.476c-1.728-.098-3.053.352-4.014 1.311a.743.743 0 0 0-.201.555v9.398a.459.459 0 0 1-.151.358.532.532 0 0 1-.357.117H20.55a.559.559 0 0 1-.382-.128.492.492 0 0 1-.156-.38V25.074c0-1.657-.051-3.023-.152-4.099a.453.453 0 0 1 .09-.362l.002.001Zm24.486 15.02-.016.007c-1.052.43-2.5.636-4.32.636-2.974 0-5.453-.892-7.418-2.687-1.982-1.812-2.951-4.533-2.951-8.112 0-3.179.964-5.756 2.911-7.704 1.967-1.967 4.554-2.942 7.734-2.942 1.872 0 3.302.214 4.258.667.115.042.21.124.268.232a.716.716 0 0 1 .078.348v2.681a.894.894 0 0 1-.024.218.404.404 0 0 1-.142.223.346.346 0 0 1-.297.056.546.546 0 0 1-.186-.091 7.845 7.845 0 0 0-3.834-.82c-1.996 0-3.545.616-4.678 1.828-1.133 1.19-1.715 2.904-1.715 5.182a9.857 9.857 0 0 0 .597 3.6 5.3 5.3 0 0 0 1.612 2.262c.626.49 1.329.872 2.08 1.13a7.39 7.39 0 0 0 2.291.357c1.205.013 2.402-.18 3.543-.568a.414.414 0 0 1 .407.024c.112.091.173.23.163.374V35a.687.687 0 0 1-.347.627l-.015.009.001-.002Z" fill="#31A8FF"/></g><defs><clipPath id="a"><path fill="#fff" transform="translate(0 .2)" d="M0 0h50v50H0z"/></clipPath></defs></svg>
